img/svgicons/copy.svg

<svg width="16" height="21" viewBox="0 0 16 21" fill="none" xmlns="http://www.w3.org/2000/svg">
<g clip-path="url(#clip0_324_14)">
<path d="M0 0C0.00513809 0.0974598 0.0102762 0.189791 0.0102762 0.287251C0.0102762 6.25794 0.0102762 12.2235 0.0102762 18.1942C0.0102762 18.2865 0.0102762 18.384 0.0102762 18.502C0.827232 18.502 1.63391 18.502 2.46114 18.502C2.46114 19.3432 2.46114 20.169 2.46114 21C6.9878 21 11.4888 21 16 21C16 14.8447 16 8.6893 16 2.51344C15.1985 2.51344 14.3969 2.51344 13.5645 2.51344C13.5645 1.66195 13.5645 0.830973 13.5645 0C9.04303 0 4.52152 0 0 0ZM1.25883 17.2709C1.25883 11.9157 1.25883 6.58109 1.25883 1.24646C4.95311 1.24646 8.63712 1.24646 12.316 1.24646C12.316 6.59648 12.316 11.926 12.316 17.2709C8.62685 17.2709 4.94798 17.2709 1.25883 17.2709ZM14.772 3.73937C14.772 9.09966 14.772 14.4343 14.772 19.7741C11.0777 19.7741 7.40398 19.7741 3.71997 19.7741C3.71997 19.3534 3.71997 18.938 3.71997 18.502C7.00321 18.502 10.2762 18.502 13.5697 18.502C13.5697 13.5674 13.5697 8.6534 13.5697 3.73937C13.9807 3.73937 14.3712 3.73937 14.772 3.73937Z" fill="#8A8A8A"/>
</g>
<defs>
<clipPath id="clip0_324_14">
<rect width="16" height="21" fill="white" transform="matrix(1 0 0 -1 0 21)"/>
</clipPath>
</defs>
</svg>

<svg width="16" height="21" fill="none" xmlns="http://www.w3.org/2000/svg"><g clip-path="url(#a)"><path d="M0 0c.005.097.01.19.01.287v18.215h2.451V21H16V2.513h-2.435V0H0Zm1.259 17.27V1.247h11.057v16.025H1.259ZM14.772 3.74v16.034H3.72v-1.272h9.85V3.739h1.202Z" fill="#8A8A8A"/></g><defs><clipPath id="a"><path fill="#fff" transform="matrix(1 0 0 -1 0 21)" d="M0 0h16v21H0z"/></clipPath></defs></svg>
